!!!COM: Anonymous
!!!OTL@@POL: Bądź cześć chwała
!!!TXO: Polish
!!!ODT: 
!!!GTL: Hymnbook L 1642
!!!ARL: Biblioteka Diecezjalna w Sandomierzu 
!!!voices:	3
**kern	**text	**text	**kern	**text	**text	**kern	**text	**text
*staff3	*staff3	*staff3	*staff2	*staff2	*staff2	*staff1	*staff1	*staff1
*I"Basso	*	*	*I"Canto II	*	*	*I"Canto I	*	*
=1-	=1-	=1-	=1-	=1-	=1-	=1-	=1-	=1-
*clefF4	*	*	*clefG2	*	*	*clefG2	*	*
*k[b-]	*	*	*k[b-]	*	*	*k[b-]	*	*
*M3/1	*	*	*M3/1	*	*	*M3/1	*	*
0G	Bądź	Kt&oacute;-	0b-	Bądź	Kt&oacute;-	0g	Bądź	Kt&oacute;-
1G	cześć	-re-	1b-	cześć	-re-	1g	cześć	-re-
=2	=2	=2	=2	=2	=2	=2	=2	=2
0G	chwa-	-mu	0dd	chwa-	-mu	0b-	chwa-	-mu
1F	-ła	ma	1dd	-ła	ma	1a	-ła	ma
=3	=3	=3	=3	=3	=3	=3	=3	=3
0G	na	dzię-	0dd	na	dzię-	0b-	na	dzię-
1E-	wie-	-ko-	1g	wie-	-ko-	1cc	wie-	-ko-
=4	=4	=4	=4	=4	=4	=4	=4	=4
0D	-ki	-wać	0a	-ki	-wać	0dd	-ki	-wać
1D	Bo-	ka-	1b-	Bo-	ka-	1ff	Bo-	ka-
=5	=5	=5	=5	=5	=5	=5	=5	=5
0C	-że	-żdy	0g	-że	-żdy	0ee-	-że	-żdy
1BB-	do-	czło-	1b-	do-	czło-	1dd	do-	czło-
=6	=6	=6	=6	=6	=6	=6	=6	=6
0F	-bro-	-wiek	0a	-bro-	-wiek	0cc	-bro-	-wiek
1F	-tli-	ży-	1f	-tli-	ży-	1cc	-tli-	ży-
=7	=7	=7	=7	=7	=7	=7	=7	=7
0.BB-	-wy	-wy	0.f	-wy	-wy	0.b-	-wy	-wy
=8:|!|:	=8:|!|:	=8:|!|:	=8:|!|:	=8:|!|:	=8:|!|:	=8:|!	=8:|!	=8:|!
--d	--d	--d	--d	--d	--d	=	=	=
1BB-	Ma-	A-	1b-	Ma-	A-	1dd	Ma-	A-
1FF	-ło	-leś	1a	-ło	-leś	1cc	-ło	-leś
1GG	miał	go	1g	miał	go	1b-	miał	go
=9	=9	=9	=9	=9	=9	=9	=9	=9
0D	żeś	u-	0f#	żeś	u-	0a	żeś	u-
1D	mu	-cze-	1f#	mu	-cze-	1a	mu	-cze-
=10	=10	=10	=10	=10	=10	=10	=10	=10
0G	się	-stni-	0g	się	-stni-	0b-	się	-stni-
1G	po-	-kiem	1g	po-	-kiem	1b-	po-	-kiem
=11	=11	=11	=11	=11	=11	=11	=11	=11
0C	-wie-	chciał	0a	-wie-	chciał	0cc	-wie-	chciał
1C	-rzył	mieć	1g	-rzył	mieć	1b-	-rzył	mieć
=12	=12	=12	=12	=12	=12	=12	=12	=12
0D	wszy-	B&oacute;͜stwa	0f#	wszy-	B&oacute;͜stwa	0a	wszy-	B&oacute;͜stwa
1D	-stkie-	swe-	1f#	-stkie-	swe-	1a	-stkie-	swe-
=13	=13	=13	=13	=13	=13	=13	=13	=13
0.GG	-go	-go	0.g	-go	-go	0.g	-go	-go
=14:|!	=14:|!	=14:|!	=14:|!	=14:|!	=14:|!	=14:|!	=14:|!	=14:|!
1GG	Da-	.	1g	Da-	.	1b-	Da-	.
1GG	-łeś	.	1g	-łeś	.	1b-	-łeś	.
1FF	chleb	.	1a	chleb	.	1cc	chleb	.
=15	=15	=15	=15	=15	=15	=15	=15	=15
1BB-	a-	.	1b-	a-	.	1dd	a-	.
1BB-	-niel-	.	1b-	-niel-	.	1dd	-niel-	.
1FF	-ski	.	1a	-ski	.	1cc	-ski	.
=16	=16	=16	=16	=16	=16	=16	=16	=16
1BB-	chleb	.	1b-	chleb	.	1dd	chleb	.
1C	po-	.	1b-	po-	.	1ee	po-	.
1AA	-si-	.	1cc	-si-	.	1ff#	-si-	.
=17	=17	=17	=17	=17	=17	=17	=17	=17
0GG	-la-	.	0dd	-la-	.	0gg	-la-	.
1GG	-ją-	.	1b-	-ją-	.	1gg	-ją-	.
=18	=18	=18	=18	=18	=18	=18	=18	=18
0.D	-cy	.	0.a	-cy	.	0.ff#	-cy	.
=19	=19	=19	=19	=19	=19	=19	=19	=19
1D	Po-	.	1a	Po-	.	1ff#i	Po-	.
1D	-si-	.	1a	-si-	.	1ff#	-si-	.
1GG	-łek	.	1dd	-łek	.	1gg	-łek	.
=20	=20	=20	=20	=20	=20	=20	=20	=20
1C	i	.	1g	i	.	1ee-i	i	.
1C	du-	.	1g	du-	.	1ee-	du-	.
1FF	-szy	.	1cc	-szy	.	1ff	-szy	.
=21	=21	=21	=21	=21	=21	=21	=21	=21
1GG	i	.	1b-	i	.	1dd	i	.
1GG	cia-	.	1b-	cia-	.	1dd	cia-	.
1C	-łu	.	1a	-łu	.	1ee-	-łu	.
=22	=22	=22	=22	=22	=22	=22	=22	=22
0D	słu-	.	1a	słu-	.	1dd	słu-	.
.	.	.	0a	-żą-	.	1dd	-żą-	.
1D	-żą-	.	.	.	.	1cc	.	.
=23	=23	=23	=23	=23	=23	=23	=23	=23
0.GG	-cy.	.	0.g	-cy.	.	0.bni	-cy.	.
==	==	==	==	==	==	==	==	==
*-	*-	*-	*-	*-	*-	*-	*-	*-
!!!GTL: Hymnbook L 1642
!!!EFL: 29/39
!!!YEM: Creative Commons CC/BY/NC/SA 4.0
!!!ENC: Marcin Konik
!!!END: 2015-02-20 
!!!EED: Marcin Konik
!!!EEV: 
!!!ONB: Translated from MusicXML and edited by Marcin Konik
!!!CharacterEncoding: utf-8
!!!RDF**kern: i=editorial accidental
!!muse2ps: z14jc180F
!!title: @{OTL}, @{GTL}: @{pag}, ed. @{ENC}
